icons/svg/trophy-variant-outline.svg

﻿<?xml version="1.0" encoding="utf-8"?>
<!DOCTYPE svg PUBLIC "-//W3C//DTD SVG 1.1//EN" "http://www.w3.org/Graphics/SVG/1.1/DTD/svg11.dtd">
<svg xmlns="http://www.w3.org/2000/svg" xmlns:xlink="http://www.w3.org/1999/xlink" version="1.1" baseProfile="full" width="24" height="24" viewBox="0 0 24.00 24.00" enable-background="new 0 0 24.00 24.00" xml:space="preserve">
	<path fill="#000000" fill-opacity="1" stroke-width="1.33333" stroke-linejoin="miter" d="M 7,2L 7,4L 2,4L 2,11C 2,12 3,13 4,13L 7.19922,13C 7.59922,14.9 8.6,16.6004 11,16.9004L 11,19C 8,19.2 8,20.2996 8,21.5996L 8,22L 16,22L 16,21.6992C 16,20.3992 16,19.2996 13,19.0996L 13,17C 15.5,16.7 16.5008,14.9996 16.8008,13.0996L 20,13.0996C 21,13.0996 22,12.0996 22,11.0996L 22,4L 17,4L 17,2L 7,2 Z M 9,4L 15,4L 15,12C 15,13.6569 14,15 12,15C 10,15 9,13.6569 9,12L 9,4 Z M 4,6L 7,6L 7,8L 7,11L 4,11L 4,6 Z M 17,6L 20,6L 20,11L 17,11L 17,6 Z "/>
</svg>

<svg xmlns="http://www.w3.org/2000/svg" version="1.1" baseProfile="full" width="24" height="24" viewBox="0 0 24.00 24.00" xml:space="preserve"><path fill="#000" fill-opacity="1" stroke-width="1.333" stroke-linejoin="miter" d="M7 2v2H2v7c0 1 1 2 2 2h3.2c.4 1.9 1.4 3.6 3.8 3.9V19c-3 .2-3 1.3-3 2.6v.4h8v-.3c0-1.3 0-2.4-3-2.6V17c2.5-.3 3.5-2 3.8-3.9H20c1 0 2-1 2-2V4h-5V2H7zm2 2h6v8c0 1.657-1 3-3 3s-3-1.343-3-3V4zM4 6h3v5H4V6zm13 0h3v5h-3V6z"/></svg>
